tools/download-figma-icons/icons/outlined-medium/e-bike.svg

<svg width="24" height="24" viewBox="0 0 24 24" fill="none" xmlns="http://www.w3.org/2000/svg">
<path fill-rule="evenodd" clip-rule="evenodd" d="M19.8165 18.2767C18.3367 18.2767 17.133 17.0737 17.133 15.594C17.133 14.5657 17.7217 13.6807 18.573 13.23L19.359 16.0597C19.4512 16.3912 19.7527 16.6087 20.0812 16.6087C20.1472 16.6087 20.2155 16.6005 20.2822 16.5817C20.6812 16.4707 20.9152 16.0575 20.8042 15.6585L20.0475 12.9337C21.4177 13.053 22.5 14.1937 22.5 15.594C22.5 17.0737 21.2962 18.2767 19.8165 18.2767ZM8.29575 14.844C8.166 14.1308 7.85775 13.479 7.4145 12.9405C7.7865 12.687 8.18775 12.4658 8.62125 12.315L9.324 14.844H8.29575ZM4.1835 18.2767C2.70375 18.2767 1.5 17.0737 1.5 15.594C1.5 14.1142 2.70375 12.9105 4.1835 12.9105C4.473 12.9105 4.746 12.9682 5.00775 13.053C4.70175 13.383 4.43775 13.707 4.2165 14.0032C4.20525 14.0032 4.19475 13.9995 4.1835 13.9995C3.303 13.9995 2.589 14.7135 2.589 15.594C2.589 16.4745 3.303 17.1877 4.1835 17.1877C4.791 17.1877 5.313 16.8442 5.58225 16.344H6.74625C6.42 17.457 5.40075 18.2767 4.1835 18.2767ZM5.58224 14.844C5.56649 14.8148 5.55149 14.784 5.53424 14.7555C5.73974 14.4893 5.98424 14.2028 6.26174 13.9178C6.48074 14.1893 6.64574 14.5013 6.74624 14.844H5.58224ZM19.8165 11.4105C19.7528 11.4105 19.6905 11.4172 19.6275 11.4195L18.4132 7.05L19.6012 4.857C19.7273 4.6245 19.722 4.34325 19.5863 4.116C19.4513 3.88875 19.2068 3.75 18.942 3.75H15.99C15.576 3.75 15.24 4.08525 15.24 4.5C15.24 4.91475 15.576 5.25 15.99 5.25H17.6828L16.95 6.60225C16.8577 6.7725 16.8353 6.9735 16.887 7.16025L17.6205 9.7995L10.0575 11.8822L9.873 11.2162C9.87075 11.2072 9.8685 11.199 9.8655 11.1915L8.71275 7.04175H9.7185C10.1325 7.04175 10.4685 6.70575 10.4685 6.29175C10.4685 5.877 10.1325 5.54175 9.7185 5.54175H6.67275C6.25875 5.54175 5.92275 5.877 5.92275 6.29175C5.92275 6.70575 6.25875 7.04175 6.67275 7.04175H7.1565L8.21925 10.8667C7.47375 11.1127 6.8055 11.4997 6.222 11.9437C5.6175 11.6047 4.92375 11.4105 4.1835 11.4105C1.8765 11.4105 0 13.287 0 15.594C0 17.9002 1.8765 19.7767 4.1835 19.7767C6.234 19.7767 7.941 18.2925 8.29575 16.344H10.3102C10.545 16.344 10.7655 16.2337 10.9073 16.0477C11.0498 15.861 11.0963 15.6187 11.0333 15.393L10.6613 14.055L17.367 12.2092C16.3193 12.9705 15.633 14.202 15.633 15.594C15.633 17.9002 17.5095 19.7767 19.8165 19.7767C22.1235 19.7767 24 17.9002 24 15.594C24 13.287 22.1235 11.4105 19.8165 11.4105Z" fill="black"/>
</svg>

<svg xmlns="http://www.w3.org/2000/svg" width="24" height="24" fill="none" viewBox="0 0 24 24"><path fill="currentColor" fill-rule="evenodd" d="M19.817 18.277a2.686 2.686 0 0 1-2.684-2.683 2.68 2.68 0 0 1 1.44-2.364l.786 2.83a.75.75 0 0 0 1.445-.401l-.756-2.725a2.68 2.68 0 0 1 2.452 2.66 2.686 2.686 0 0 1-2.683 2.683M8.296 14.844a4.2 4.2 0 0 0-.881-1.903 5.2 5.2 0 0 1 1.206-.626l.703 2.529zm-4.112 3.433A2.686 2.686 0 0 1 1.5 15.594a2.686 2.686 0 0 1 2.684-2.683c.289 0 .562.057.824.142-.306.33-.57.654-.792.95l-.032-.004a1.595 1.595 0 0 0 0 3.189c.607 0 1.129-.344 1.398-.844h1.164a2.68 2.68 0 0 1-2.562 1.933m1.398-3.433q-.022-.046-.048-.088c.206-.267.45-.553.728-.838.219.271.384.583.484.926zm14.235-3.433c-.064 0-.127.006-.19.008L18.414 7.05l1.188-2.193a.748.748 0 0 0-.659-1.107H15.99a.75.75 0 1 0 0 1.5h1.693l-.733 1.352a.75.75 0 0 0-.063.558l.733 2.64-7.563 2.082-.184-.666-.007-.024-1.153-4.15h1.006a.75.75 0 0 0 0-1.5H6.673a.75.75 0 1 0 0 1.5h.484l1.062 3.825a6.9 6.9 0 0 0-1.997 1.077 4.15 4.15 0 0 0-2.038-.534A4.19 4.19 0 0 0 0 15.595a4.19 4.19 0 0 0 4.184 4.183 4.19 4.19 0 0 0 4.112-3.433h2.014a.75.75 0 0 0 .723-.951l-.372-1.338 6.706-1.846a4.18 4.18 0 0 0-1.734 3.385 4.19 4.19 0 0 0 4.184 4.183A4.19 4.19 0 0 0 24 15.594a4.19 4.19 0 0 0-4.183-4.183" clip-rule="evenodd"/></svg>
